!!!COM: Palestrina, Giovanni Perluigi da
!!!OPR: Missa Beatus Laurentius
!!!OMD: Credo
!!!OTL: Crucifixus
**kern	**kern	**kern	**kern
*Itenor	*Icalto	*Icant	*Icant
!Tenor	!Altus	!Cantus 2	!Cantus 1
*clefGv2	*clefG2	*clefG2	*clefG2
*k[]	*k[]	*k[]	*k[]
*G:mix	*G:mix	*G:mix	*G:mix
*M4/2	*M4/2	*M4/2	*M4/2
=58	=58	=58	=58
0r	0g	1r	0r
.	.	1dd	.
=59	=59	=59	=59
0r	1cc	1ee	0r
.	1a	1ff#	.
=60	=60	=60	=60
0r	1g	2gg	0r
.	.	4gg	.
.	.	4ff	.
.	1a	4ee	.
.	.	4dd	.
.	.	2cc	.
=61	=61	=61	=61
0r	2g	2b	0r
.	2a	1cc	.
.	2a	.	.
.	[2g	2b	.
=62	=62	=62	=62
0d	2g]	1a	1r
.	4f#	.	.
.	4e	.	.
.	2f#	1dd	1a
.	2f#	.	.
=63	=63	=63	=63
1g	2r	2r	1b
.	1g	2dd	.
1e	.	1ee	1cc#
.	2g	.	.
=64	=64	=64	=64
1d	1a	1ff#	2dd
.	.	.	4dd
.	.	.	4cc
1e	2g	1gg	4b
.	.	.	4a
.	2cc	.	[2g
=65	=65	=65	=65
1d	2b	2r	2g]
.	2.a	1dd	2f#
2B	.	.	1g
.	4g	.	.
2c	[2g	2ee	.
=66	=66	=66	=66
1A	4g]	2.cc	2a
.	8f#	.	.
.	8e	.	.
.	2f#	.	1cc
.	.	4cc	.
[1G	1g	2ee	.
.	.	2dd	2b
=67	=67	=67	=67
1G]	2r	2r	2r
.	2g	2b	2dd
1r	2.g	2b	2dd
.	.	2g	2b
.	4e	.	.
=68	=68	=68	=68
0r	2f#	2a	2dd
.	2g	2b	2dd
.	1c	1cc	1ee
=69	=69	=69	=69
2r	2g	2b	1dd
2g	2b	1dd	.
2f#	2a	.	1r
[2g	[2b	2dd	.
=70	=70	=70	=70
4g]	4b]	1b	1gg
4f#	4a	.	.
2e	2g	.	.
2d	2a	1dd	2ff#
4g	[2b	.	[2gg
4f	.	.	.
=71	=71	=71	=71
4e	2b]	1.ee	4gg]
4d	.	.	4ff
1c	4cc	.	4ee
.	4b	.	4dd
.	4a	.	2cc
.	4g	.	.
2G	[2g	2dd	2b
=72	=72	=72	=72
1d	4g]	1dd	2a
.	8f#	.	.
.	8e	.	.
.	2f#	.	2a
2r	1g	2r	2b
2g	.	2b	2dd
=73	=73	=73	=73
2f#	0r	2a	2dd
2g	.	2b	2dd
2e	.	2cc	2ee
2d	.	2dd	2ff
=74	=74	=74	=74
1c	0r	2.ee	2.gg
.	.	4dd	4ff
2c	.	2cc	2ee
2d	.	[2b	[2dd
=75	=75	=75	=75
1f	0r	4b]	4dd]
.	.	4a	4cc
.	.	1a	4cc
.	.	.	8b
.	.	.	8a
1e	.	.	1b
.	.	2g#	.
=76	=76	=76	=76
2r	2r	2a	2a
2A	2a	2ee	2cc
2e	2g#	2ee	2b
2A	2a	2ee	2cc
=77	=77	=77	=77
2.d	2.f	2.a	0dd
4e	4e	4g	.
2f#	2d	2a	.
[2g	8G	2b	.
.	8A	.	.
.	8B	.	.
.	8c	.	.
=78	=78	=78	=78
2g]	1d	1a	1dd
2f#	.	.	.
1g	1G	2r	2b
.	.	2dd	2b
=79	=79	=79	=79
0r	0r	2ee	2cc
.	.	2ff	2dd
.	.	2gg	2ee
.	.	2dd	2ff
=80	=80	=80	=80
0r	1r	4ee	4gg
.	.	4ff	4ff
.	.	4gg	4ee
.	.	4ff	4dd
.	2r	4ee	4cc
.	.	4dd	4dd
.	2e	[2cc	4ee
.	.	.	4cc
=81	=81	=81	=81
0r	2f	2cc]	2.dd
.	2g	2b	.
.	.	.	4ee
.	2a	2cc	2ff
.	2b	[2dd	[2gg
=82	=82	=82	=82
0r	1cc	4dd]	4gg]
.	.	4cc	4ff
.	.	1cc	2ee
.	1g	.	[1dd
.	.	4b	.
.	.	4a	.
=83	=83	=83	=83
1G	2r	2b	2dd]
.	2g	2dd	2b
2d	2g	2dd	2a
2d	2f#	2dd	2a
=84	=84	=84	=84
1.c	1.g	2.ee	2.cc
.	.	4dd	4dd
.	.	2cc	2ee
2c	2g	[2ee	[2gg
=85	=85	=85	=85
1c	1e	4ee]	4gg]
.	.	4dd	4ff
.	.	1cc	2ee
1G	1g	.	1dd
.	.	2b	.
=86	=86	=86	=86
1c	2g	2r	2r
.	2c	2cc	2ee
1r	2.g	2.b	2.dd
.	4g	4b	4dd
=87	=87	=87	=87
0r	2g	2b	2dd
.	2a	2cc	2cc
.	2g	2dd	2b
.	2f	2dd	2a
=88	=88	=88	=88
2r	2e	2ee	2b
2G	2g	2dd	2b
2.c	2.g	2.ee	2.cc
4c	4g	4ee	4cc
=89	=89	=89	=89
2c	2g	2ee	2cc
2d	2f	2ff	2a
2c	2g	2ee	2cc
2B	2g	4dd	[2dd
.	.	4ee	.
=90	=90	=90	=90
0A	1a	2ff	2dd]
.	.	1ee	4cc#
.	.	.	4b
.	2r	.	1cc#
.	2a	2a	.
=91	=91	=91	=91
0r	2g	2b	1dd
.	2f	2dd	.
.	8e	2g	1r
.	8d	.	.
.	8e	.	.
.	8f	.	.
.	[2g	2b	.
=92	=92	=92	=92
1d	2g]	1a	2r
.	2f#	.	2dd
2e	1g	2r	2cc
2g	.	2dd	2b
=93	=93	=93	=93
2c	2r	1ee	4a
.	.	.	4g
2e	2g	.	1cc
1d	2a	2.ff	.
.	2f	.	2b
.	.	4ff	.
=94	=94	=94	=94
1c	1g	1ee	2cc
.	.	.	1cc
1r	1a	2r	.
.	.	[2cc	2ee
=95	=95	=95	=95
0r	0r	2cc]	2.gg
.	.	2ee	.
.	.	.	4ff
.	.	1gg	4ee
.	.	.	4dd
.	.	.	2ee
=96	=96	=96	=96
0r	2r	2ff	2dd
.	1c	2ee	2cc
.	.	2.gg	2.ee
.	2e	.	.
.	.	8ff	8dd
.	.	8ee	8cc
=97	=97	=97	=97
0r	1g	4dd	4b
.	.	4cc	4a
.	.	4dd	4b
.	.	4ee	4cc
.	2f	2ff	2dd
.	2e	[2gg	[2ee
=98	=98	=98	=98
0r	1g	4gg]	4ee]
.	.	4ff	4dd
.	.	4ee	4gg
.	.	4dd	4ff
.	1a	1cc	4ee
.	.	.	4dd
.	.	.	[2cc
=99	=99	=99	=99
1r	1g	1dd	2cc]
.	.	.	2b
2r	2.a	2.cc	2cc
[2F	.	.	[2a
.	4b	4b	.
=100	=100	=100	=100
2F]	2cc	1a	2a]
2A	1c	.	2cc
1c	.	2r	1ee
.	2e	2g	.
=101	=101	=101	=101
2B	2g	2b	2dd
2A	1a	1cc	2ff
1c	.	.	1ee
.	2g	2b	.
=102	=102	=102	=102
0d	2f#	2a	0dd
.	2.g	2b	.
.	.	1a	.
.	4f#	.	.
.	2f#	.	.
=103	=103	=103	=103
0c	0g	2.cc	2.ee
.	.	4dd	4dd
.	.	1ee	1cc
=104	=104	=104	=104
0G	0g	0dd	0b
*-	*-	*-	*-
!!!CDT: 1525/^1526/-1594/2/2
!!!OCY: Italia
!!!AGN: Mass (Paraphrase)
!!!AST: renaissance, vocal
!!!ASW: Antiphon
!!!PWK: Masses, Book 8
!!!RNB: Cadence finals: C
!!!YOR: Le Opere Complete, v. 24, p. 194
!!!YOO: Rome, Italy: Fratelli Scalera
!!!END: 1992//
!!!EED: John Miller
!!!YEC: Copyright 2000, John Miller
!!!YEN: United States of America
!!!YEM: Rights to all derivative electronic formats reserved.
!!!YEM: Refer to licensing agreement for further details.
!!!YEM: This file must be accompanied by the licensing agreement.
!!!YEM: A copy of the licensing agreement may be found at http://www.music-cog.ohio-state.edu/HumdrumDatabases/Palestrina/license.txt
!!!EMD: converted to Humdrum by Bret Aarden
